X: 27
M:2/4
L:1/8
K:G
ed B/B/d/d/|ef g2|ed B/B/G/G/|AG G2||DG B/c/B/G/|AB c2|
ed B/B/d/d/|ef g2|ed B/c/B/G/|BA A2|ed B/c/B/d/|ef g2|ed D/E/G/B/|AG G2||



